X: 20915
T: Josie Byrne's
R: barndance
M: 4/4
K: Gmajor
|:Bc|dcBA GABd|eged B2 d2|edef g2 B2|AGAB A2 Bc|
dcBA GABd|eged B2 d2|edef g2 B2|AGAB G2:|
|:Bd|g2 ge f2 fd|eged B2 d2|edef g2 B2|AGAB A2 Bd|
g2 ge f2 fd|eged B2 d2|edef g2 B2|AGAB G2:|

